X: 29132
T: Neppendorfer Laendler
R: mazurka
M: 3/4
K: Gmajor
|:g fg|eg cg fe|dg Be dB|cB Ae dc|Bd Gg fg|
eg cg fe|dg Bg fe|ed fd cA|G3:|
|:B AB|cB Ae dc|BD Gd BG|FD Fd cA|GD GB AB|
cB Ae dc|BD Gd BG|FD Fd cA|G3:|

